images/流程图/u77_seg2.svg

<svg xmlns="http://www.w3.org/2000/svg" width="20" height="10" preserveAspectRatio="xMinYMid meet" viewBox="105 580 20 8"><defs><mask id="a" fill="#fff"><path fill-rule="evenodd" d="M93 636h34v28H93Zm0-62h42v145H93Z"/></mask></defs><path fill="none" stroke="#d9001b" stroke-width="2" d="M125 716h-10a5 5 0 0 1-5-5V589a5 5 0 0 1 5-5h4" mask="url(#a)"/><path fill="#d9001b" d="m118 591.6 7-7.6-7-7.6z" mask="url(#a)"/></svg>

﻿<?xml version="1.0" encoding="utf-8"?>
<svg version="1.1" xmlns:xlink="http://www.w3.org/1999/xlink" width="20px" height="10px" preserveAspectRatio="xMinYMid meet" viewBox="105 580  20 8" xmlns="http://www.w3.org/2000/svg">
  <defs>
    <mask fill="white" id="clip12">
      <path d="M 93 636  L 127 636  L 127 664  L 93 664  Z M 93 574  L 135 574  L 135 719  L 93 719  Z " fill-rule="evenodd" />
    </mask>
  </defs>
  <path d="M 125 716  L 115 716  A 5 5 0 0 1 110 711 L 110 589  A 5 5 0 0 1 115 584 L 119 584  " stroke-width="2" stroke="#d9001b" fill="none" mask="url(#clip12)" />
  <path d="M 118 591.6  L 125 584  L 118 576.4  L 118 591.6  Z " fill-rule="nonzero" fill="#d9001b" stroke="none" mask="url(#clip12)" />
</svg>
